assets/img/system-status/icon-system-status.svg

<?xml version="1.0" encoding="UTF-8"?>
<svg width="24px" height="24px" viewBox="0 0 24 24" version="1.1" xmlns="http://www.w3.org/2000/svg" xmlns:xlink="http://www.w3.org/1999/xlink">
    <title>icon-system-status</title>
    <g id="icon-system-status" stroke="none" stroke-width="1" fill="none" fill-rule="evenodd">
        <path d="M12,0 C18.627417,0 24,5.372583 24,12 C24,18.627417 18.627417,24 12,24 C5.372583,24 0,18.627417 0,12 C0,5.372583 5.372583,0 12,0 Z M8,6 C7.44771525,6 7,6.44771525 7,7 L7,7 L7,17 C7,17.5522847 7.44771525,18 8,18 C8.55228475,18 9,17.5522847 9,17 L9,17 L9,7 C9,6.44771525 8.55228475,6 8,6 Z M12,8 C11.4477153,8 11,8.44771525 11,9 L11,9 L11,17 C11,17.5522847 11.4477153,18 12,18 C12.5522847,18 13,17.5522847 13,17 L13,17 L13,9 C13,8.44771525 12.5522847,8 12,8 Z M16,6 C15.4477153,6 15,6.44771525 15,7 L15,7 L15,17 C15,17.5522847 15.4477153,18 16,18 C16.5522847,18 17,17.5522847 17,17 L17,17 L17,7 C17,6.44771525 16.5522847,6 16,6 Z" id="Combined-Shape" fill="#205493"></path>
    </g>
</svg>

<svg width="24" height="24" xmlns="http://www.w3.org/2000/svg"><path d="M12 0c6.627 0 12 5.373 12 12s-5.373 12-12 12S0 18.627 0 12 5.373 0 12 0zM8 6a1 1 0 00-1 1v10a1 1 0 002 0V7a1 1 0 00-1-1zm4 2a1 1 0 00-1 1v8a1 1 0 002 0V9a1 1 0 00-1-1zm4-2a1 1 0 00-1 1v10a1 1 0 002 0V7a1 1 0 00-1-1z" fill="#205493" fill-rule="evenodd"/></svg>
